public/library/arbiscan-icon-dark.svg

<svg width="238" height="238" viewBox="0 0 238 238" fill="none" xmlns="http://www.w3.org/2000/svg">
<g clip-path="url(#clip0_4057_1924)">
<path d="M25.668 74.3076V163.693C25.668 169.4 28.7167 174.676 33.6545 177.52L111.032 222.222C115.969 225.066 122.048 225.066 126.986 222.222L204.363 177.52C209.301 174.676 212.35 169.4 212.35 163.693V74.3076C212.35 68.6005 209.301 63.3239 204.363 60.4797L126.986 15.7779C122.048 12.9337 115.969 12.9337 111.032 15.7779L33.6357 60.4797C28.698 63.3239 25.668 68.6005 25.668 74.3076Z" fill="#213147"/>
<path d="M135.889 136.336L124.853 166.611C124.554 167.453 124.554 168.37 124.853 169.212L143.838 221.305L165.796 208.619L139.442 136.336C138.844 134.671 136.487 134.671 135.889 136.336Z" fill="#12AAFF"/>
<path d="M158.015 85.4221C157.416 83.7568 155.059 83.7568 154.461 85.4221L143.426 115.697C143.126 116.539 143.126 117.456 143.426 118.298L174.53 203.585L196.488 190.899L158.015 85.4221Z" fill="#12AAFF"/>
<path d="M119 19.1272C119.542 19.1272 120.085 19.2769 120.571 19.5389L204.308 67.9082C205.28 68.4695 205.879 69.5174 205.879 70.6213V167.341C205.879 168.464 205.28 169.493 204.308 170.054L120.571 218.424C120.104 218.704 119.542 218.835 119 218.835C118.458 218.835 117.915 218.686 117.429 218.424L33.6924 170.092C32.7198 169.53 32.1213 168.483 32.1213 167.379V70.64C32.1213 69.5174 32.7198 68.4882 33.6924 67.9269L117.429 19.5576C117.915 19.2769 118.458 19.1272 119 19.1272ZM119 5C116.026 5 113.034 5.76717 110.359 7.32023L26.6411 55.6708C21.2919 58.7582 18 64.4652 18 70.64V167.36C18 173.535 21.2919 179.242 26.6411 182.329L110.378 230.698C113.052 232.233 116.026 233.019 119.019 233.019C121.993 233.019 124.985 232.252 127.66 230.698L211.396 182.329C216.746 179.242 220.037 173.535 220.037 167.36V70.64C220.037 64.4652 216.746 58.7582 211.396 55.6708L127.641 7.32023C124.966 5.76717 121.974 5 119 5Z" fill="#9DCCED"/>
<path d="M63.6191 203.698L71.3251 182.591L86.8304 195.483L72.3351 208.731L63.6191 203.698Z" fill="#213147"/>
<path d="M111.949 63.7168H90.72C89.1301 63.7168 87.7087 64.7085 87.1663 66.2054L41.6602 191.011L63.6183 203.698L113.726 66.2616C114.193 65.0266 113.277 63.7168 111.949 63.7168Z" fill="white"/>
<path d="M149.095 63.7168H127.866C126.276 63.7168 124.855 64.7085 124.312 66.2054L72.3535 208.712L94.3117 221.399L150.872 66.2616C151.321 65.0266 150.404 63.7168 149.095 63.7168Z" fill="white"/>
</g>
<defs>
<clipPath id="clip0_4057_1924">
<rect width="202" height="228" fill="white" transform="translate(18 5)"/>
</clipPath>
</defs>
</svg>

<svg xmlns="http://www.w3.org/2000/svg" width="238" height="238" fill="none" viewBox="0 0 238 238"><g clip-path="url(#a)"><path fill="#213147" d="M25.668 74.308v89.385a15.96 15.96 0 0 0 7.986 13.827l77.378 44.702a15.98 15.98 0 0 0 15.954 0l77.377-44.702a15.96 15.96 0 0 0 7.987-13.827V74.308a15.96 15.96 0 0 0-7.987-13.828l-77.377-44.702a15.98 15.98 0 0 0-15.954 0L33.636 60.48c-4.938 2.844-7.968 8.12-7.968 13.828"/><path fill="#12aaff" d="m135.889 136.336-11.036 30.275a3.88 3.88 0 0 0 0 2.601l18.985 52.093 21.958-12.686-26.354-72.283c-.598-1.665-2.955-1.665-3.553 0M158.015 85.422c-.599-1.665-2.956-1.665-3.554 0l-11.035 30.275a3.87 3.87 0 0 0 0 2.601l31.104 85.287 21.958-12.686z"/><path fill="#9dcced" d="M119 19.127c.542 0 1.085.15 1.571.412l83.737 48.37a3.15 3.15 0 0 1 1.571 2.712v96.72a3.13 3.13 0 0 1-1.571 2.713l-83.737 48.37c-.467.28-1.029.411-1.571.411a3.33 3.33 0 0 1-1.571-.411l-83.737-48.332a3.15 3.15 0 0 1-1.57-2.713V70.64c0-1.123.598-2.152 1.57-2.713l83.737-48.37a3.15 3.15 0 0 1 1.571-.43M119 5a17.2 17.2 0 0 0-8.641 2.32L26.641 55.67A17.28 17.28 0 0 0 18 70.64v96.72a17.28 17.28 0 0 0 8.641 14.969l83.737 48.369a17.34 17.34 0 0 0 8.641 2.321 17.2 17.2 0 0 0 8.641-2.321l83.736-48.369a17.28 17.28 0 0 0 8.641-14.969V70.64a17.28 17.28 0 0 0-8.641-14.97L127.641 7.32A17.2 17.2 0 0 0 119 5"/><path fill="#213147" d="m63.62 203.698 7.705-21.107 15.505 12.892-14.495 13.248z"/><path fill="#fff" d="M111.949 63.717H90.72c-1.59 0-3.011.992-3.554 2.488L41.66 191.011l21.958 12.687 50.108-137.436c.467-1.235-.449-2.545-1.777-2.545M149.095 63.717h-21.229c-1.59 0-3.011.992-3.554 2.488L72.354 208.712l21.958 12.687 56.56-155.137c.449-1.235-.468-2.545-1.777-2.545"/></g><defs><clipPath id="a"><path fill="#fff" d="M18 5h202v228H18z"/></clipPath></defs></svg>
